X:9277
T:Laridenn
S:E.P.Band
R:Other
O:France
M:4/4
A:Brittany
K:F#m
cc|\
fe/f/ gf/g/ aa g>f|ef ga gg cc|\
fe/f/ gf/g/ aa g>f |1 ef ga f2cc :|2ef ga f2||
|:c>d|\
cB AB c2 fg/f/|ef ga gg c>d|cB AB c2 fg/f/|1\
ef ga f2 :|2 ef ga f2||


